actions/24/kdenlive-zoom-small.svg

<?xml version="1.0" encoding="UTF-8" standalone="no"?>
<svg
   width="24"
   height="24"
   version="1.1"
   id="svg9"
   sodipodi:docname="kdenlive-zoom-small.svg"
   inkscape:version="1.1.2 (0a00cf5339, 2022-02-04)"
   xmlns:inkscape="http://www.inkscape.org/namespaces/inkscape"
   xmlns:sodipodi="http://sodipodi.sourceforge.net/DTD/sodipodi-0.dtd"
   xmlns="http://www.w3.org/2000/svg"
   xmlns:svg="http://www.w3.org/2000/svg">
  <sodipodi:namedview
     id="namedview11"
     pagecolor="#000000"
     bordercolor="#666666"
     borderopacity="1.0"
     inkscape:pageshadow="2"
     inkscape:pageopacity="0"
     inkscape:pagecheckerboard="0"
     showgrid="false"
     inkscape:zoom="56.833333"
     inkscape:cx="12"
     inkscape:cy="11.982405"
     inkscape:window-width="1837"
     inkscape:window-height="967"
     inkscape:window-x="0"
     inkscape:window-y="29"
     inkscape:window-maximized="1"
     inkscape:current-layer="g7" />
  <defs
     id="defs3">
    <style
       id="current-color-scheme"
       type="text/css">
   .ColorScheme-Text { color:#eeeeec; } .ColorScheme-Highlight { color:#367bf0; } .ColorScheme-NeutralText { color:#ffcc44; } .ColorScheme-PositiveText { color:#3db47e; } .ColorScheme-NegativeText { color:#dd4747; }
  </style>
  </defs>
  <g
     transform="translate(4,4)"
     id="g7">
    <path
       style="fill:currentColor"
       class="ColorScheme-Text"
       d="M 8.2310989,8.4621977 8.2313779,7.5372443 7.7452145,7.490429 6.2039693,4.4079385 6.4547756,4 H 6 6.4547756 9.4465021 L 9.7796827,4.4406346 10,4 9.7796827,4.4406346 8.2313779,7.5372443 Z M 2,2 C 1,2 1,3 1,3 V 7 H 3 V 4 H 5.9922 L 6,2 Z m 8,0 v 2 h 3 v 3 h 2 V 3 C 15,2 14,2 14,2 Z M 1,9 v 4 c 0,1 1,1 1,1 H 6 V 12 H 3 V 9 Z m 12,0 v 3 h -3 v 2 h 4 c 0,0 1,0 1,-1 V 9 Z M 8.2310989,8.4621977 7.7738167,8.4523665 6.2609641,11.478072 6.6135855,12 H 6 6.6135855 9.4287478 L 9.7369617,11.473923 10,12 9.7369617,11.473923 Z"
       id="path5"
       sodipodi:nodetypes="cccccccccccccsccccccscccccscccscccccccccccscccccccccccccc" />
  </g>
</svg>

<svg xmlns="http://www.w3.org/2000/svg" width="24" height="24" version="1.1">
 <defs>
  <style id="current-color-scheme" type="text/css">
   .ColorScheme-Text { color:#eeeeec; } .ColorScheme-Highlight { color:#367bf0; } .ColorScheme-NeutralText { color:#ffcc44; } .ColorScheme-PositiveText { color:#3db47e; } .ColorScheme-NegativeText { color:#dd4747; }
  </style>
 </defs>
 <g transform="translate(4,4)">
  <path style="fill:currentColor" class="ColorScheme-Text" d="M 8,8 6,4 H 10 Z M 2,2 C 1,2 1,3 1,3 V 7 H 3 V 4 H 5.9922 L 6,2 Z M 10,2 V 4 H 13 V 7 H 15 V 3 C 15,2 14,2 14,2 Z M 1,9 V 13 C 1,14 2,14 2,14 H 6 V 12 H 3 V 9 Z M 13,9 V 12 H 10 V 14 H 14 C 14,14 15,14 15,13 V 9 Z M 8,8 6,12 H 10 Z"/>
 </g>
</svg>
